X:54
T:How will new part fit?
M:4/4
L:1/4
Q:1/4=100
K:AMaj
%%MIDI program 1 41 % Viola
%%%%MIDI program 2 41 % Viola
%%MIDI program 2 19 % Church Organ
%%MIDI program 3 41 % Viola
V:Tenor
A2GA|B2A2|GABc|(d<B)cA|(B>c)AG|A4||
V:Five
(5:4:3FA/z (5:4:3FA/z|(5:4:3FA/z (5:4:3FA/z|(5:4:3FA/z (5:4:3FA/z|(5:4:3FA/z (5:4:3FA/z|(5:4:3FA/z (5:4:3FA/z|(5:4:3FA/z (5:4:3FA/z||
V:Four
C4|E4|z4|E4|G4|z4||
%
V:Tenor
A2GA|B2A2|GABc|(d<B)cA|(B>c)AG|A4||
V:Five
LFA/z LFA/|z LFA/z LF/-|F/A/z LFA/z/|z/ LFA/z LF|A/z LFA/z| LFA/z LFA/||
V:Four
C4|E4|z4|E4|G4|z4||
%
V:Tenor
A2GA|B2A2|GABc|(d<B)cA|(B>c)AG|A4||
V:Five
LF/A//z/ LF/A//z/ LF/A//z/ LF//-|F//A//z/ LF/A//z/ LF/A//z/ LF/|A//z/
LF/A//z/ LF/A//z/ LF/A//|z/ LF/A//z/ LF/A//z/ LF/A//z//-|z//
LF/A//z/ LF/A//z/ LF/A//z/| LF/A//z/ LF/A//z/ LF/A//z/ z//||
V:Four
C4|E4|z4|E4|G4|z4||
%
V:Tenor
A2GA|B2A2|GABc|(d<B)cA|(B>c)AG|A4||
V:Five
z2 z F|LA/z FLA/z| FLA/z FLA/|z FLA/z F/-|F/LA/z FLA/z/|z/ FLA/z F||
V:Four
C4|E4|z4|E4|G4|z4||

